!!!COM:	la Rue, Pierre de
!!!CDT:	~1452///-1518/11/20
!!!OTL:	Credo
!!!AGN:	Mass section; Credo
!!!SCT:	Rue1033
!!!SCA:	Rue1033
!!!voices:	4
**kern	**kern	**kern	**kern
*staff4	*staff3	*staff2	*staff1
*Ivox	*Ivox	*Ivox	*Ivox
*I"Bassus	*I"Tenor	*I"Contra	*I"Discantus
*I'B	*I'T	*I'C	*I'D
*>[A,B]	*>[A,B]	*>[A,B]	*>[A,B]
*>A	*>A	*>A	*>A
*clefF4	*clefGv2	*clefG2	*clefG2
*k[]	*k[]	*k[]	*k[]
*M2/1	*M2/1	*M2/1	*M2/1
*met(C)	*met(C)	*met(C)	*met(C)
!!section: Patrem omnipotentem
!!!OMD: Patrem omnipotentem
=1-	=1-	=1-	=1-
0r	0r	1g	0r
.	.	2e/	.
.	.	2e/	.
=2	=2	=2	=2
0r	1c	2g/	0r
.	.	2g/	.
.	2A/	1a	.
.	2A/	.	.
=3	=3	=3	=3
0r	2c\	1g	1cc
.	2c\	.	.
.	1d	1r	2a/
.	.	.	2a/
=4	=4	=4	=4
0r	1c	1r	2cc\
.	.	.	2cc\
.	1r	2.f/	1dd
.	.	4g/	.
=5	=5	=5	=5
0r	1r	2a/	0cc
.	.	2a/	.
.	2.c\	[1g	.
.	4d\	.	.
=6	=6	=6	=6
0r	1e	1g]	2.cc\
.	.	.	4dd\
.	1A	1e	2ee\
.	.	.	2ee\
=7	=7	=7	=7
0r	2r	1.f	1dd
.	1d	.	.
.	.	.	2b\
.	2B\	4e/	2dd\
.	.	4d/	.
=8	=8	=8	=8
0r	2c\	2e/	2cc\
.	2d\	2f/	2a/
.	1G	2g/	[1g
.	.	4f/	.
.	.	4e/	.
=9	=9	=9	=9
2G\	1r	1d	1g]
2G\	.	.	.
2A\	2c\	1r	1r
2A\	2c\	.	.
=10	=10	=10	=10
2.B\	2d\	0r	0r
.	2d\	.	.
8A\L	.	.	.
8G\J	.	.	.
1G	2.e\	.	.
.	8d\L	.	.
.	8c\J	.	.
=11	=11	=11	=11
2.c\	1c	0r	0r
4B\	.	.	.
4B\	2.f\	.	.
4A\	.	.	.
[2A\	.	.	.
.	4e\	.	.
=12	=12	=12	=12
4A\]	4e\	1r	1r
4G\	4d\	.	.
2F\	1d	.	.
1E	.	1g	2r
.	2c#i\	.	2ee\
=13	=13	=13	=13
1D	1d	2f/	1ff
.	.	2f/	.
2r	2r	4e/	1gg
.	.	4f/	.
2G\	2e\	4g/	.
.	.	4e/	.
=14	=14	=14	=14
2F\	1f	1a	2cc\
2D\	.	.	4ff\
.	.	.	4ee\
1G	1g	2b\	4dd\
.	.	.	4cc\
.	.	[2g/	[2dd\
=15	=15	=15	=15
1A	1c	4g/]	2dd\]
.	.	4f/	.
.	.	2f/	2.cc\
1G	2d\	[1g	.
.	.	.	4b\
.	2d\	.	2b\
=16	=16	=16	=16
0C	0c	2g/]	0cc
.	.	4f/	.
.	.	4e/	.
.	.	[1e	.
=17	=17	=17	=17
2c\	0r	1e]	0r
2c\	.	.	.
2B\	.	1r	.
2B\	.	.	.
=18	=18	=18	=18
2c\	0r	2g/	0r
2c\	.	2g/	.
1A	.	2f/	.
.	.	2f/	.
=19	=19	=19	=19
2r	0r	2g/	0r
2B\	.	2g/	.
2c\	.	2e/	.
[2d\	.	[2f/	.
=20	=20	=20	=20
2d\]	0r	4f/]	0r
.	.	4e/	.
2.c\	.	4d/	.
.	.	4c/	.
.	.	1d	.
4B\	.	.	.
4B\	.	.	.
4A\	.	.	.
=21	=21	=21	=21
0c	1e	1c	0cc
.	2e\	1g	.
.	2e\	.	.
=22	=22	=22	=22
1r	1c	2g/	2ee\
.	.	2g/	2ee\
1G	1d	1g	[1dd
=23	=23	=23	=23
2G\	2B\	0g	1dd]
2G\	2.d\	.	.
1G	.	.	[1dd
.	4c\	.	.
.	2B\	.	.
=24	=24	=24	=24
1D	1A	2r	1dd]
.	.	2f/	.
2G\	1G	2g/	2b\
2G\	.	2b-i\	2dd\
=25	=25	=25	=25
1A	2c\	2a/	2cc\
.	2c\	4e/	2a/
.	.	4f/	.
[1G	2d\	[1g	[1b
.	2d\	.	.
=26	=26	=26	=26
1G]	4e\	1g]	2b\]
.	4d\	.	.
.	4c\	.	4a/
.	4B\	.	4g/
1C	[1c	2g/	1g
.	.	2g/	.
=27	=27	=27	=27
0r	1c]	2a/	2cc\
.	.	2a/	2cc\
.	1G	1b	2dd\
.	.	.	2dd\
=28	=28	=28	=28
0r	0r	1g	1ee
.	.	2r	1cc
.	.	[2cc\	.
=29	=29	=29	=29
0r	0r	2cc\]	2r
.	.	2b\	1ff
.	.	4a/	.
.	.	4g/	.
.	.	4f/	2ee\
.	.	4e/	.
=30	=30	=30	=30
1r	0r	1f	2dd\
.	.	.	2dd\
2r	.	2e/	4ee\
.	.	.	4dd\
[2F\	.	4A/	4cc\
.	.	4G/	4b\
=31	=31	=31	=31
2F\]	0r	4A/	2a/
.	.	4B/	.
2E\	.	1c	2g/
1D	.	.	1f
.	.	2B/	.
=32	=32	=32	=32
0C	1r	0c	0e
.	1g	.	.
=33	=33	=33	=33
1r	2f\	0r	0r
.	2f\	.	.
1c	1g	.	.
=34	=34	=34	=34
2B\	1d	0r	0r
2B\	.	.	.
1c	1r	.	.
=35	=35	=35	=35
1G	1g	0r	0r
1r	2f\	.	.
.	2f\	.	.
=36	=36	=36	=36
1c	2g\	0r	0r
.	2e\	.	.
2B\	4d\	.	.
.	4e\	.	.
2B\	4f\	.	.
.	4d\	.	.
=37	=37	=37	=37
2c\	2e\	0r	0r
2A\	4d\	.	.
.	4c\	.	.
2G\	2B\	.	.
2A\	2c\	.	.
=38	=38	=38	=38
2A\	2c\	0r	0r
2G\	2B\	.	.
2A\	2c\	.	.
4G\	4B\	.	.
4F\	4A/	.	.
=39	=39	=39	=39
2E\	1G	0r	0r
1G	.	.	.
.	2r	.	.
2F\	[2d\	.	.
=40	=40	=40	=40
2G\	2d\]	0r	0r
2E\	2c\	.	.
2F\	2d\	.	.
2D\	2B\	.	.
=41	=41	=41	=41
1C	2c\	2g/	2cc\
.	4B\	2a/	2cc\
.	4A/	.	.
1r	1G	2b\	2dd\
.	.	2b\	2dd\
=42	=42	=42	=42
0r	1r	1cc	1.ee
.	2r	1g	.
.	2c\	.	4dd\
.	.	.	4cc\
=43	=43	=43	=43
0r	1f	2r	1cc
.	.	2a/	.
.	2f\	1cc	1r
.	2f\	.	.
=44	=44	=44	=44
0r	1e	2cc\	2r
.	.	2cc\	2cc\
.	1d	1b	1ff
=45	=45	=45	=45
0r	2r	1a	2ff\
.	2d\	.	2ff\
.	4c\	1r	1ee
.	4B\	.	.
.	2c\	.	.
=46	=46	=46	=46
0r	2d\	2r	2dd\
.	2f\	2a/	2dd\
.	1e	4g/	4cc#\
.	.	4f/	4b\
.	.	2g/	2cc#i\
=47	=47	=47	=47
1r	0d	1a	0dd
1G	.	2r	.
.	.	2b\	.
=48	=48	=48	=48
2F\	0r	2a/	1r
2G\	.	1b	.
1E	.	.	1ee
.	.	2g/	.
=49	=49	=49	=49
1D	1r	1a	1ff
2r	1e	1g	1gg
2G\	.	.	.
=50	=50	=50	=50
2A\	1f	2r	2.cc\
2F\	.	1a	.
.	.	.	4dd\
1c	1g	.	4ee\
.	.	.	4dd\
.	.	[2g/	[2ee\
=51	=51	=51	=51
1A	2c\	4g/]	4ee\]
.	.	4f/	4dd\
.	2c\	2f/	1cc
1G	2d\	1g	.
.	2d\	.	2b\
=52	=52	=52	=52
1r	1c	1r	1cc
2G\	1r	2g/	1r
2G\	.	2g/	.
=53	=53	=53	=53
2F\	1r	2a/	2cc\
2F\	.	2a/	2cc\
2G\	2d\	2g/	2b\
2G\	2d\	2g/	2b\
=54	=54	=54	=54
1C	2c\	1e	2cc\
.	2c\	.	2cc\
1r	2d\	1r	1a
.	2d\	.	.
=55	=55	=55	=55
1G	1B	1g	1r
2F\	1r	2a/	1cc
2F\	.	2a/	.
=56	=56	=56	=56
2G\	1d	1g	2b\
2G\	.	.	2b\
2C/	2c\	2g/	2cc\
2C/	2c\	[2e/	2g/
=57	=57	=57	=57
0C	2c\	4e/]	2.cc\
.	.	4f/	.
.	2G/	4g/	.
.	.	4a/	4dd\
.	2c\	1g	2ee\
.	2c\	.	2ee\
=58	=58	=58	=58
1G	1d	1g	0dd
2G\	2B\	2r	.
2G\	[2d\	2g/	.
=59	=59	=59	=59
2D\	4d\]	4f/	1dd
.	4c\	4e/	.
2D\	2A/	2f/	.
2G\	2B\	2g/	2b\
4F\	4A/	2g/	[2dd\
4E\	4G/	.	.
=60	=60	=60	=60
[0D	2F/	1a	4dd\]
.	.	.	4cc\
.	1d	.	2a/
.	.	[1d	2b\
.	4c\	.	4a/
.	4B\	.	4g/
=61	=61	=61	=61
1D]	1A	1d]	2f#i/
.	.	.	4g/
.	.	.	4f#i/
1G	1G	1r	1g
=62	=62	=62	=62
2A\	1c	0r	0r
2A\	.	.	.
2B\	2d\	.	.
2B\	2d\	.	.
=63	=63	=63	=63
1G	2e\	1g	1r
.	2e\	.	.
1r	1c	2a/	1cc
.	.	2a/	.
=64	=64	=64	=64
2r	1r	2b\	2dd\
2G\	.	2b\	2dd\
2c\	2r	1g	2ee\
2c\	2c\	.	2ee\
=65	=65	=65	=65
1A	2f\	1r	1cc
.	2f\	.	.
2B\	1d	2r	1r
2G\	.	2g/	.
=66	=66	=66	=66
1A	1c	2cc\	2r
.	.	2cc\	2cc\
1D	2d\	2.a/	2ff\
.	2f\	.	2ff\
.	.	4b\	.
=67	=67	=67	=67
1r	2.f\	2a/	2.dd\
.	.	2g/	.
.	4g\	.	4ee\
2r	2f\	1a	2dd\
2A\	2e\	.	2cc\
=68	=68	=68	=68
1B	1d	0r	1dd
2c\	1r	.	2r
2c\	.	.	2ee\
=69	=69	=69	=69
2d\	1r	2r	1ff
2d\	.	2a/	.
1G	1e	2b\	1gg
.	.	2g/	.
=70	=70	=70	=70
2r	1f	2a/	2.cc\
2A\	.	2cc\	.
.	.	.	4dd\
2E\	1g	2.b\	4ee\
.	.	.	4ff\
[2c\	.	.	[2ee\
.	.	4a/	.
=71	=71	=71	=71
4c\]	1c	2g/	4ee\]
4B\	.	.	4dd\
2A\	.	2f/	1cc
1G	2d\	1g	.
.	2d\	.	2b\
=72	=72	=72	=72
1r	0c	1r	1cc
1c	.	1g	1r
=73	=73	=73	=73
1A	0c	1cc	0ee
1A	.	1cc	.
=74	=74	=74	=74
1.F	1A 1c	1cc	1ff
.	1A 1c	[1cc	1ff
4E\	.	.	.
4D\	.	.	.
=75	=75	=75	=75
1C	1c	2cc\]	1.ee
.	.	4b\	.
.	.	4a/	.
1C	1c	1g	.
.	.	.	4dd\
.	.	.	4cc\
=76	=76	=76	=76
[0Gl	[0dl	[0gl	2.b\
.	.	.	4a/
.	.	.	1b
=77	=77	=77	=77
0G]	0d]	0g]	0bl
!!LO:LB:i:g=z
=78||	=78||	=78||	=78||
*>B	*>B	*>B	*>B
*clefF4	*clefGv2	*clefG2	*clefG2
*k[]	*k[]	*k[]	*k[]
*M2/1	*M2/1	*M2/1	*M2/1
*met(C)	*met(C)	*met(C)	*met(C)
!!section: Crucifixus
!!!OMD: Crucifixus
1F	1r	0r	0r
2.F\	1c	.	.
4G\	.	.	.
=79	=79	=79	=79
2A\	2.c\	0r	0r
2A\	.	.	.
.	4d\	.	.
[1G	2e\	.	.
.	2e\	.	.
=80	=80	=80	=80
1G]	0d	0r	0r
1F	.	.	.
=81	=81	=81	=81
2F\	1c	0r	0r
2E\	.	.	.
2F\	2c\	.	.
2D\	2B\	.	.
=82	=82	=82	=82
0C	2c\	1g	1r
.	4B\	.	.
.	4A/	.	.
.	1G	2g/	1cc
.	.	2g/	.
=83	=83	=83	=83
0r	0r	2a/	2cc\
.	.	2a/	2cc\
.	.	1b	2dd\
.	.	.	2dd\
=84	=84	=84	=84
0r	0r	1g	1ee
.	.	2r	1cc
.	.	[2a/	.
=85	=85	=85	=85
0r	0r	2a/]	1ff
.	.	2a/	.
.	.	2g/	2ee\
.	.	2g/	[2dd\
=86	=86	=86	=86
2r	1r	2.b\	2dd\]
2G\	.	.	2gg\
.	.	8a/L	.
.	.	8b/J	.
2A\	2r	2cc\	2ee\
2F\	2d\	2a/	[2ff\
=87	=87	=87	=87
0G	2B\	2.b\	4ff\]
.	.	.	4ee\
.	2c\	.	4dd\
.	.	4g/	4cc\
.	1d	1g	2b\
.	.	.	4cc\
.	.	.	4b\
=88	=88	=88	=88
0C	0c	1r	1cc
.	.	1g	1r
=89	=89	=89	=89
0r	0r	2f/	1cc
.	.	2f/	.
.	.	1g	2b\
.	.	.	2b\
=90	=90	=90	=90
0r	0r	1e	1cc
.	.	2r	1a
.	.	2f/	.
=91	=91	=91	=91
0r	0r	2g/	2r
.	.	2f/	2cc\
.	.	2b-\	2dd\
.	.	4a/	2cc\
.	.	4g/	.
=92	=92	=92	=92
1F	0c	1a	2ff\
.	.	.	4ee\
.	.	.	4dd\
2C/	.	[1g	[1ee
[2C/	.	.	.
=93	=93	=93	=93
4C/]	1e	1g]	1ee]
4D\	.	.	.
4E\	.	.	.
4F\	.	.	.
2G\	2d\	1r	1r
2G\	2B\	.	.
=94	=94	=94	=94
4F\	2c\	2a/	0r
4E\	.	.	.
2F\	2A/	2a/	.
1G	[1G	2b\	.
.	.	2b\	.
=95	=95	=95	=95
1C	0G]	2cc\	2cc\
.	.	2cc\	2cc\
1r	.	1b	2dd\
.	.	.	2dd\
=96	=96	=96	=96
0r	0r	2r	2ee\
.	.	2g/	2ee\
.	.	2a/	1cc
.	.	[2a/	.
=97	=97	=97	=97
0r	0r	4a/]	2r
.	.	4g/	.
.	.	4f/	2ee\
.	.	4e/	.
.	.	2d/	2ff\
.	.	2a/	2ff\
=98	=98	=98	=98
0r	0r	2b-i\	4dd\
.	.	.	4ee\
.	.	2b-i\	4ff\
.	.	.	4dd\
.	.	2g/	2ee\
.	.	2f/	2dd\
=99	=99	=99	=99
0r	0r	4g/	4ee\
.	.	4f/	4dd\
.	.	4e/	4cc#i\
.	.	4d/	4b\
.	.	1e	2cc#i\
.	.	.	4dd\
.	.	.	4cc#i\
=100	=100	=100	=100
0r	2r	2d/	1dd
.	2B\	2d/	.
.	2c\	2e/	1r
.	2A/	2f/	.
=101	=101	=101	=101
2r	2G/	1g	1r
2E\	2c\	.	.
2F\	2c\	1r	2r
2D\	2B\	.	2dd\
=102	=102	=102	=102
1C	2.c\	1r	2ee\
.	.	.	2cc\
.	8B/L	.	.
.	8A/J	.	.
2r	1G	2r	1b
2E\	.	2g/	.
=103	=103	=103	=103
2F\	2r	2a/	2r
2D\	2B\	2f/	2dd\
1C	2c\	1e	2ee\
.	2A/	.	2cc\
=104	=104	=104	=104
0r	1G	2r	4b\
.	.	.	4cc\
.	.	2g/	4dd\
.	.	.	4ee\
.	1r	2a/	2ff\
.	.	2f/	2dd\
=105	=105	=105	=105
1r	1c	2e/	2ee\
.	.	2e/	2cc\
1G	2d\	1g	1b
.	2d\	.	.
=106	=106	=106	=106
2E\	2e\	0r	0r
2F\	4d\	.	.
.	4c\	.	.
2D\	4B\	.	.
.	4A/	.	.
2D\	2B\	.	.
=107	=107	=107	=107
0C	0c	0g	0ee
=108	=108	=108	=108
1C	1G	1g	1ee
1C	1c	1g	1ee
=109	=109	=109	=109
1G	1B	1g	0dd
1D	2A/	1a	.
.	[2d\	.	.
=110	=110	=110	=110
1G	2d\]	2g/	1b
.	1d	2.b\	.
1B	.	.	1dd
.	.	4a/	.
.	2B\	2g/	.
=111	=111	=111	=111
1A	1.c	4a/	1cc
.	.	4g/	.
.	.	4f#i/	.
.	.	4e/	.
1A	.	2f#i/	1a
.	4B\	4g/	.
.	4c\	4f#i/	.
=112	=112	=112	=112
0G	0d	0g	1.b
.	.	.	4a/
.	.	.	4g/
=113	=113	=113	=113
1r	2c\	0r	1g
.	2c\	.	.
2F\	2d\	.	1r
2F\	2d\	.	.
=114	=114	=114	=114
2G\	2.e\	0r	0r
2G\	.	.	.
.	8d\L	.	.
.	8c\J	.	.
2.A\	1c	.	.
8G\L	.	.	.
8F\J	.	.	.
=115	=115	=115	=115
1F	1f	0r	0r
1B-	2d\	.	.
.	[2g\	.	.
=116	=116	=116	=116
2G\	4g\]	0r	0r
.	4f\	.	.
1A	4e\	.	.
.	4d\	.	.
.	2c\	.	.
4G\	2d\	.	.
4F\	.	.	.
=117	=117	=117	=117
1E	4c#i\	1r	1ee
.	4B\	.	.
.	2c#i\	.	.
1D	1d	1a	2ff\
.	.	.	2ff\
=118	=118	=118	=118
0r	0r	2b\	2.gg\
.	.	2b\	.
.	.	.	4ff\
.	.	2cc\	2ee\
.	.	2cc\	4dd\
.	.	.	4cc\
=119	=119	=119	=119
0r	1G	4b\	1dd
.	.	4a/	.
.	.	2b\	.
.	2.A/	1cc	1cc
.	4B\	.	.
=120	=120	=120	=120
1F	2c\	1a	2.cc\
.	2c\	.	.
.	.	.	4dd\
2C/	1c	1g	2ee\
2C/	.	.	2ee\
=121	=121	=121	=121
0G	1.B	2g/	1dd
.	.	2g/	.
.	.	2g/	1b
.	2B\	2g/	.
=122	=122	=122	=122
2F\	1A	1a	2cc\
2F\	.	.	2cc\
2.G\	2B\	2g/	2b\
.	[2c\	2g/	4a/
4E\	.	.	4g/
=123	=123	=123	=123
2F\	4c\]	0d	2a/
.	4B\	.	.
2G\	4A/	.	2.g/
.	4G/	.	.
1D	1A	.	.
.	.	.	4f#i/
.	.	.	2f#i/
=124	=124	=124	=124
1G	0G	1d	0g
1r	.	2r	.
.	.	[2g/	.
=125	=125	=125	=125
0E	1r	4g/]	0r
.	.	4f/	.
.	.	2.e/	.
.	1c	.	.
.	.	4d/	.
.	.	[2c/	.
=126	=126	=126	=126
1F	1d	2c/]	0r
.	.	4B/	.
.	.	4A/	.
1D	1f	2B/	.
.	.	4c/	.
.	.	4B/	.
=127	=127	=127	=127
0C	0e	1c	1r
.	.	2g/	1cc
.	.	[2g/	.
=128	=128	=128	=128
0r	0r	2g/]	1dd
.	.	4f/	.
.	.	4e/	.
.	.	1d	1ff
=129	=129	=129	=129
1r	1.g	1c	1ee
[1c	.	2r	2r
.	2g\	[2cc\	[2ee\
=130	=130	=130	=130
2c\]	2g\	2cc\]	2ee\]
2c\	2g\	2cc\	2ee\
2c\	1g	2cc\	2ee\
2c\	.	2cc\	2ee\
=131	=131	=131	=131
1c	0g	1cc	1ee
[1G	.	2b\	1dd
.	.	2b\	.
=132	=132	=132	=132
1G]	1g	2b\	1dd
.	.	2b\	.
1G	2g\	1b	2dd\
.	2g\	.	2dd\
=133	=133	=133	=133
2G\	1d	2g/	2.dd\
2G\	.	1b	.
.	.	.	4cc\
2G\	1d	.	2b\
2G\	.	4a/	[2dd\
.	.	4g/	.
=134	=134	=134	=134
0D	1.d	2f#i/	2dd\]
.	.	2.g/	4cc\
.	.	.	4b\
.	.	.	1a
.	.	4f#i/	.
.	4c\	2f#i/	.
.	4B\	.	.
=135	=135	=135	=135
1G	1B	1g	0g
1r	1c	1r	.
=136	=136	=136	=136
1F	1d	0r	0r
1G	2e\	.	.
.	2e\	.	.
=137	=137	=137	=137
2A\	0c	0r	0r
2A\	.	.	.
[1F	.	.	.
=138	=138	=138	=138
1F]	2.f\	0r	0r
.	4e\	.	.
1G	4d\	.	.
.	4c\	.	.
.	[2e\	.	.
=139	=139	=139	=139
2E\	4e\]	0r	1cc
.	4d\	.	.
2F\	1c	.	.
1D	.	.	2dd\
.	2B\	.	2dd\
=140	=140	=140	=140
1C	1c	1g	1ee
1r	1r	2a/	1cc
.	.	2a/	.
=141	=141	=141	=141
0r	0r	1b	2r
.	.	.	2dd\
.	.	1g	2ee\
.	.	.	4dd\
.	.	.	4cc\
=142	=142	=142	=142
0r	0r	2r	2b\
.	.	2g/	2ee\
.	.	2a/	2ff\
.	.	4g/	4ee\
.	.	4f/	4dd\
=143	=143	=143	=143
2r	1r	4e/	4cc\
.	.	4d/	4b\
2A\	.	2e/	2cc\
1B	2r	1d	1dd
.	2d\	.	.
=144	=144	=144	=144
1c	2e\	1r	2r
.	2g\	.	2ee\
2d\	2f\	2r	2ff\
2d\	2f\	2a/	2ff\
=145	=145	=145	=145
1G	2d\	2b\	2gg\
.	2d\	2b\	2gg\
2F\	4f\	2a/	2cc\
.	4e\	.	.
[2G\	4d\	2g/	4b\
.	4c\	.	4cc\
=146	=146	=146	=146
2G\]	2B\	2g/	2dd\
2A\	2c\	2f/	2.cc\
1G	1d	2g/	.
.	.	.	4b\
.	.	2g/	2b\
=147	=147	=147	=147
1C	1c	2.e/	0cc
.	.	4d/	.
1F	1r	1c	.
=148	=148	=148	=148
2A\	1c	0r	0r
2A\	.	.	.
[1G	2e\	.	.
.	2e\	.	.
=149	=149	=149	=149
1G]	1d	2r	0r
.	.	2g/	.
2E\	1r	2g/	.
2G\	.	2g/	.
=150	=150	=150	=150
2F\	2A/	2a/	1r
2D\	2B\	2f/	.
[1C	2c\	[1e	2cc\
.	2A/	.	2cc\
=151	=151	=151	=151
0C]	[0G	1e]	2ee\
.	.	.	2ee\
.	.	2g/	1ee
.	.	2g/	.
=152	=152	=152	=152
0r	0G]	2g/	2dd\
.	.	2g/	4b\
.	.	.	4cc\
.	.	1g	4dd\
.	.	.	4ee\
.	.	.	[2dd\
=153	=153	=153	=153
0r	0r	4f/	2dd\]
.	.	4g/	.
.	.	4a/	4cc\
.	.	4b\	4b\
.	.	2a/	4cc\
.	.	.	4b\
.	.	2g/	4a/
.	.	.	4g/
=154	=154	=154	=154
0r	0r	4f#i/	1a
.	.	4e/	.
.	.	2f#i/	.
.	.	[1g	2.b\
.	.	.	8a/L
.	.	.	8g/J
=155	=155	=155	=155
1G	1r	1g]	1g
1A	1c	1r	1r
=156	=156	=156	=156
1B	1d	1r	0r
1G	1e	1g	.
=157	=157	=157	=157
0r	1c	1a	1cc
.	1r	1b	1dd
=158	=158	=158	=158
2.c\	1r	1g	1ee
4c\	.	.	.
2A\	2.f\	1r	1cc
2A\	.	.	.
.	4f\	.	.
=159	=159	=159	=159
1B	2d\	1r	0r
.	2d\	.	.
1A	1e	2.cc\	.
.	.	4cc\	.
=160	=160	=160	=160
2r	1d	2a/	2.ff\
1d	.	2a/	.
.	.	.	4ff\
.	2r	1b	2dd\
2B\	2d\	.	2dd\
=161	=161	=161	=161
2c\	4c\	4e/	2ee\
.	4d\	4f/	.
1C	4e\	4g/	4cc\
.	4f\	4a/	4dd\
.	4g\	2g/	4ee\
.	4a\	.	4ff\
[2c\	[2g\	2c/	[2ee\
=162	=162	=162	=162
2c\]	4g\]	4cc\	2ee\]
.	4f\	4b\	.
2d\	4e\	4a/	2dd\
.	4d\	4g/	.
1A	1e	1a	4cc#i\
.	.	.	4b\
.	.	.	2cc#i\
=163	=163	=163	=163
1D	0d	0a	1dd
2r	.	.	1r
2F\	.	.	.
=164	=164	=164	=164
2G\	2r	0r	0r
2E\	2c\	.	.
2F\	2d\	.	.
2D\	2B\	.	.
=165	=165	=165	=165
1C	2c\	2r	2r
.	2A/	2a/	2cc\
1r	1G	2b\	2dd\
.	.	2g/	2b\
=166	=166	=166	=166
1r	1r	2a/	2cc\
.	.	2f/	2a/
2r	2r	2.g/	2g/
[2G\	[2d\	.	[2b\
.	.	4f/	.
=167	=167	=167	=167
4G\]	2d\]	2d/	4b\]
4F\	.	.	4a/
2E\	2G/	2c/	1g
1D	1A	1d	.
.	.	.	2f#i/
=168	=168	=168	=168
*M3/1	*M3/1	*M3/1	*M3/1
*met(3)	*met(3)	*met(3)	*met(3)
!!The score should show "3" -- but for classification purposes, 
!! this mensuration is really C3, not Cut-C3 (since the preceding 
!! mensuration is C). C3 should be classified together with C-dot.
!!primary-mensuration: met(C3)
2.E\	1G	1r	1g
4F\	.	.	.
2G\	2r	2d/	1r
1C	2.c\	2.e/	.
.	.	.	1r
.	4d\	4f/	.
2r	2e\	2g/	.
=169	=169	=169	=169
2.F\	2c\	1a	1cc
.	1f	.	.
4E\	.	.	.
2D\	.	2f/	2dd\
2.C/	1e	1g	1ee
4D\	.	.	.
2E\	2r	2g/	[2cc\
=170	=170	=170	=170
2F\	1A	2a/	2cc\]
1D	.	1f	1ff
.	2B\	.	.
2C/	1c	2r	1ee
2c\	.	2.a/	.
2d\	2f\	.	2dd\
.	.	4f/	.
=171	=171	=171	=171
2B\	2d\	2g/	2.dd\
1A	1e	1a	.
.	.	.	4b\
.	.	.	2cc#i\
1.D	1d	2.f/	1.dd
.	.	4g/	.
.	2d\	2a/	.
=172	=172	=172	=172
1r	1e	2.g/	1r
.	.	4a/	.
2d\	2f\	2b\	2dd\
2.c\	1g	1cc	1ee
4B\	.	.	.
2A\	2c\	2cc\	2ff\
=173	=173	=173	=173
2.G\	1d	1b	1gg
4F\	.	.	.
2E\	2e\	2g/	2cc\
2D\	2.f\	2a/	1dd
1BB-	.	2.b-\	.
.	4e\	.	.
.	2d\	.	2ff\
.	.	4a/	.
=174	=174	=174	=174
1C	1c	1g	2.ee\
.	.	.	4cc\
2G\	2B\	2g/	2dd\
2A\	2c\	2f/	1cc
1G	1d	1g	.
.	.	.	2b\
=175	=175	=175	=175
1C	0c	2.e/	2.cc\
.	.	4f/	4dd\
2C/	.	4g/	2ee\
.	.	4a/	.
2.C/	.	[1.g	2ee\
.	1e	.	4dd\
4D\	.	.	4cc\
4E\	.	.	4b\
4F\	.	.	4a/
=176	=176	=176	=176
0.G;	0.d;	1.g;]	0.b;
.	.	[1.gl	.
=177	=177	=177	=177
0.Cl	0.cl	0.g]	0.ccl
==	==	==	==
*-	*-	*-	*-
!!!RDF**kern: l=long note in original notation
!!!RDF**kern: i=editorial accidental
!!!ENC:	Chris Gage 07-02-2013
!!!END:	2013/07/31/
!!!EED:	Jesse Rodin
!!!EEV:	2013/08/05/
!!!ONB:	Translated from MusicXML and edited on 2013/08/05/ by Craig Sapp
!!muse2ps: C^@{COM}^i2I150v85,85,85,150Q16
